assets/icon-heart.svg

<?xml version="1.0" encoding="UTF-8"?>
<!DOCTYPE svg PUBLIC "-//W3C//DTD SVG 1.1//EN" "http://www.w3.org/Graphics/SVG/1.1/DTD/svg11.dtd">
<!-- Creator: CorelDRAW 2017 -->
<svg xmlns="http://www.w3.org/2000/svg" xml:space="preserve" width="100%" height="100%" version="1.1" style="shape-rendering:geometricPrecision; text-rendering:geometricPrecision; image-rendering:optimizeQuality; fill-rule:evenodd; clip-rule:evenodd"
viewBox="0 0 1.70513 1.51714"
 xmlns:xlink="http://www.w3.org/1999/xlink">
 <defs>
  <style type="text/css">
   <![CDATA[
    .str0 {stroke:#FE4F32;stroke-width:0.04;stroke-linejoin:round;stroke-miterlimit:22.9256}
    .fil0 {fill:none}
   ]]>
  </style>
 </defs>
 <g id="Camada_x0020_1">
  <metadata id="CorelCorpID_0Corel-Layer"/>
  <path class="fil0 str0" d="M0.99849 0.28231c-0.03199,-0.05885 -0.10393,-0.09497 -0.20869,-0.09641 -0.10925,-0.0015 -0.1847,0.05745 -0.23618,0.13078 -0.06269,-0.08442 -0.1413,-0.12724 -0.24593,-0.12297 -0.10914,0.00446 -0.19512,0.05513 -0.24377,0.12964 -0.06191,0.09479 -0.05088,0.20959 -0.01296,0.31114 0.0287,0.07685 0.07365,0.1413 0.12227,0.19754 0.06851,0.07923 0.14509,0.14111 0.20542,0.18843 0.07819,-0.01345 0.16289,-0.04631 0.24524,-0.10652 0.0568,-0.04153 0.10664,-0.09976 0.15354,-0.16727 0.00113,-0.00213 0.00232,-0.00427 0.00358,-0.00644 0.05626,-0.09651 0.12438,-0.19559 0.19237,-0.30884 -0.12083,-0.00223 -0.2251,0.04196 -0.32225,0.14143 -0.02841,0.02908 -0.06265,0.04032 -0.10179,0.00663 -0.03188,-0.02743 -0.03549,-0.07123 -0.00501,-0.11053 0.08336,-0.10752 0.18951,-0.16436 0.30978,-0.1798 0.04948,-0.00635 0.09856,-0.00885 0.14438,-0.00681zm-0.22778 0.47875c-0.00081,0.00201 -0.00156,0.00401 -0.00225,0.00599 0.00068,-0.00198 0.00144,-0.00397 0.00225,-0.00599zm-0.00608 0.01955c-0.00041,0.00189 -0.00077,0.00378 -0.00105,0.00563 0.00028,-0.00185 0.00064,-0.00374 0.00105,-0.00563zm-0.00122 0.03211c0.00026,0.00168 0.00058,0.00335 0.00095,0.005 -0.00037,-0.00164 -0.00069,-0.00331 -0.00095,-0.005zm0.53191 -0.79272c0.08193,0 0.14834,0.06641 0.14834,0.14834 0,0.08193 -0.06641,0.14834 -0.14834,0.14834 -0.08193,0 -0.14834,-0.06641 -0.14834,-0.14834 0,-0.08193 0.06641,-0.14834 0.14834,-0.14834zm-1.20623 0.6929l0.24983 0 0.03904 -0.11516 0.06246 0.18933 0.06246 -0.39232 0.05465 0.50553 0.05342 -0.30191m0.05089 -0.03624l0.02256 0.15077 0.11281 0m-0.01978 0.03377c-0.0469,0.06751 -0.09674,0.12574 -0.15354,0.16727 -0.10366,0.07579 -0.21104,0.10824 -0.30449,0.11321 -0.07574,0.00403 -0.13139,0.0337 -0.13272,0.1054 -0.00134,0.07186 0.05542,0.10185 0.12296,0.09564 0.1978,-0.0182 0.35193,-0.08421 0.47821,-0.19128 0.04152,-0.0352 0.07995,-0.07675 0.11387,-0.12279 -0.0164,-0.00684 -0.03412,-0.01349 -0.05322,-0.01998 -0.07089,-0.02407 -0.10905,-0.07571 -0.07107,-0.14747zm0.46063 -0.31519c0.02056,0.06377 0.06269,0.1116 0.13534,0.13503 0.05491,0.0177 0.11595,0.02781 0.17371,0.00391 0.06727,-0.02785 0.10933,-0.02749 0.12882,0.01366 0.02257,0.04762 0.00265,0.09799 -0.04879,0.12101 -0.09214,0.04124 -0.18376,0.0453 -0.2635,0.02343 -0.12685,-0.03479 -0.18626,-0.08375 -0.20749,-0.14155l0.03183 -0.05744c0.01631,-0.02942 0.04339,-0.06388 0.05008,-0.09805zm-0.05008 0.09805c0.02252,-0.04063 0.0656,-0.09086 0.04713,-0.13668 -0.04086,-0.10137 -0.2086,-0.12586 -0.381,-0.10373 -0.12027,0.01544 -0.22642,0.07228 -0.30978,0.1798 -0.03048,0.0393 -0.02687,0.0831 0.00501,0.11053 0.03914,0.03369 0.07338,0.02245 0.10179,-0.00663 0.09715,-0.09947 0.20142,-0.14366 0.32225,-0.14143 -0.06799,0.11325 -0.13611,0.21233 -0.19237,0.30884 -0.04379,0.07511 -0.0055,0.12913 0.06749,0.15391 0.11786,0.04002 0.18347,0.08635 0.20578,0.14432 0.03063,0.07957 0.03447,0.17619 -0.02793,0.28192 -0.03256,0.05518 -0.05736,0.10757 -0.00289,0.1529 0.04473,0.03722 0.11405,0.0305 0.14432,-0.01724 0.06854,-0.1081 0.11259,-0.23313 0.10102,-0.37522 -0.01317,-0.16185 -0.10689,-0.24996 -0.21359,-0.31173l0.13277 -0.23956z"/>
 </g>
</svg>

<svg xmlns="http://www.w3.org/2000/svg" width="100%" height="100%" fill-rule="evenodd" clip-rule="evenodd" image-rendering="optimizeQuality" shape-rendering="geometricPrecision" text-rendering="geometricPrecision" version="1.1" viewBox="0 0 1.705 1.517" xml:space="preserve">
  <path fill="none" stroke="#fe4f32" stroke-linejoin="round" stroke-miterlimit="22.926" stroke-width=".04" d="M.998.282C.966.223.895.187.79.186a.277.277 0 0 0-.236.13.275.275 0 0 0-.246-.122.298.298 0 0 0-.244.13C.002.417.013.532.05.633a.652.652 0 0 0 .122.198c.069.08.145.141.206.188A.583.583 0 0 0 .78.74C.837.644.905.545.973.431a.42.42 0 0 0-.322.142C.623.602.588.613.55.579.517.552.514.51.544.47a.454.454 0 0 1 .31-.18.85.85 0 0 1 .144-.007zm-.227.48zM.765.78zM.763.813zM1.295.02a.148.148 0 1 1 0 .297.148.148 0 0 1 0-.297zM.09.713h.25L.378.598l.062.19.063-.393L.558.9.61.598m.05-.036l.023.15h.113m-.02.035a.695.695 0 0 1-.153.167.568.568 0 0 1-.305.113c-.075.004-.131.034-.132.106-.002.071.055.101.123.095a.83.83 0 0 0 .478-.191.725.725 0 0 0 .114-.123.843.843 0 0 0-.053-.02C.778.87.739.818.777.747zM1.238.43c.02.064.063.112.135.136a.25.25 0 0 0 .174.003c.067-.027.11-.027.129.014.022.048.003.098-.049.121a.388.388 0 0 1-.263.024C1.237.694 1.177.645 1.156.587L1.188.53c.016-.03.043-.064.05-.099zm-.05.099c.023-.041.066-.091.047-.137C1.195.29 1.027.267.855.289a.454.454 0 0 0-.31.18c-.031.04-.028.083.004.11.04.034.074.023.102-.006A.42.42 0 0 1 .973.43C.905.545.837.644.781.741.737.814.776.868.848.893c.118.04.184.086.206.144.03.08.035.177-.028.282-.032.056-.057.108-.003.153.045.037.115.03.145-.017a.6.6 0 0 0 .1-.375C1.257.919 1.163.83 1.056.769l.133-.24z"/>
</svg>
